X:693
T:Queen's Welcome to Invercauld
C:James Scott Skinner
B:Harp and Claymore
Z:Nigel Gatherer
M:2/4
L:1/16
K:A dorian
AB    | c2e2 d2f2 | e2a2 f2ed | c2e2 A2Bc  | dedB  G2
ed    | c2e2 d2f2 | e2a2 f2ed | ceAc dB=GB | c2AA  A2  :|
(3efg | a3f  g2e2 | f2d2 e2A2 | fedf e2A2  | dcBA  G2g2 |
        a3f  g2e2 | f2d2 e2AB | ceAc dB=GB | c2AA  A2  :|
